shared/images/iconfont/69-kb-iconfont-nav-teams-24.svg

<?xml version="1.0" encoding="UTF-8"?>
<svg width="24px" height="24px" viewBox="0 0 24 24" version="1.1" xmlns="http://www.w3.org/2000/svg" xmlns:xlink="http://www.w3.org/1999/xlink">
    <!-- Generator: sketchtool 54.1 (76490) - https://sketchapp.com -->
    <title>6C0C0F7B-7111-46E7-944C-0D4E8CB8CD83</title>
    <desc>Created with sketchtool.</desc>
    <g id="Symbols" stroke="none" stroke-width="1" fill="none" fill-rule="evenodd">
        <g id="69-kb-iconfont-nav-teams-24">
            <g>
                <rect id="icon-area" opacity="0" x="0" y="0" width="24" height="24"></rect>
                <path d="M3.70909807e-17,17.6498167 L0,17.830367 C7.83910315e-17,18.4704784 0.306394767,19.071916 0.824203067,19.4482365 L1.49090054,19.9327631 C1.91037205,20.2376167 2.49755357,20.1447005 2.80240716,19.725229 C2.9190016,19.5647977 2.98180107,19.3715668 2.98180107,19.1732427 L2.98180107,16.655883 C2.99526229,15.4707143 3.39538494,14.3223615 4.12132617,13.3854436 C1.6961876,14.1165812 3.70909807e-17,15.7512841 3.70909807e-17,17.6498167 Z M16.252822,6.33408585 C16.252822,3.94043633 14.3123856,2 11.9187361,2 C9.52508658,2 7.58465024,3.94043633 7.58465024,6.33408585 C7.58738895,8.72660005 9.5262219,10.665433 11.9187361,10.6681717 C14.3123856,10.6681717 16.252822,8.72773537 16.252822,6.33408585 Z M5.82503611,7.18542568 C5.82508728,6.78111409 5.86564768,6.37782486 5.94610957,5.9816005 C5.60919995,5.86038579 5.25437397,5.79643129 4.89634497,5.79238897 C3.39299876,5.78301912 2.07937456,6.80580561 1.71989477,8.26556995 C1.36041497,9.72533428 2.04888505,11.2411541 3.38467145,11.9309456 C4.72045785,12.6207371 6.35498998,12.3045007 7.33710315,11.1662602 C6.36361455,10.0686393 5.82573157,8.65254918 5.82503611,7.18542568 Z M19.8786738,13.3854436 C20.6046151,14.3223615 21.0047377,15.4707143 21.0181989,16.655883 L21.0181989,19.1732427 C21.0181989,19.6917908 21.4385652,20.112157 21.9571132,20.112157 C22.1554373,20.112157 22.3486682,20.0493575 22.5090995,19.9327631 L23.1757969,19.4482365 C23.6936052,19.071916 24,18.4704784 24,17.830367 L24,17.6498167 C24,15.751135 22.3038124,14.116452 19.8786738,13.3854436 Z M22.4858518,9.04279663 C22.4837587,7.2484785 21.0296984,5.79441824 19.2353803,5.79232512 C18.8773455,5.79636751 18.5225138,5.86032304 18.1855987,5.98153971 C18.5629455,7.83236785 18.0476883,9.75288955 16.7945827,11.1662832 C17.6785546,12.1948288 19.1100336,12.5631925 20.3806814,12.0890973 C21.6513293,11.615002 22.4916595,10.3989967 22.4858518,9.04279663 Z M11.9272043,12.2934539 C8.0907594,12.2934539 4.96966846,14.3903956 4.96966846,16.9680433 L4.96964454,18.6880392 C4.96964454,19.4033314 5.35164342,20.0641691 5.97148083,20.4211627 C7.73776355,21.4384483 9.63079131,21.9470911 11.6505641,21.9470911 C13.6940365,21.9470911 15.7407019,21.4264417 17.7905605,20.3851429 L17.7905516,20.3851253 C18.4618532,20.0441137 18.8847401,19.3549713 18.8847401,18.6020206 L18.8847401,16.9680433 C18.8847401,14.3903956 15.7638977,12.2934539 11.9272043,12.2934539 Z" id="team" fill="#000000"></path>
            </g>
        </g>
    </g>
</svg>

<svg xmlns="http://www.w3.org/2000/svg" width="24" height="24" viewBox="0 0 24 24">
    <path fill="#000" fill-rule="nonzero" d="M0 17.65v.18a2 2 0 0 0 .824 1.618l.667.485a.939.939 0 0 0 1.49-.76v-2.517a5.44 5.44 0 0 1 1.14-3.27C1.696 14.115 0 15.75 0 17.65zM16.253 6.334a4.334 4.334 0 1 0-8.668 0 4.334 4.334 0 0 0 8.668 0zm-10.428.851c0-.404.04-.807.121-1.203a3.208 3.208 0 0 0-1.05-.19 3.25 3.25 0 1 0 2.441 5.374 6.004 6.004 0 0 1-1.512-3.98zm14.054 6.2a5.44 5.44 0 0 1 1.14 3.27v2.518a.939.939 0 0 0 1.49.76l.667-.485A2 2 0 0 0 24 17.83v-.18c0-1.899-1.696-3.534-4.121-4.265zm2.607-4.342a3.254 3.254 0 0 0-3.25-3.25 3.208 3.208 0 0 0-1.05.189 6.007 6.007 0 0 1-1.391 5.184 3.237 3.237 0 0 0 5.69-2.123zm-10.559 3.25c-3.836 0-6.957 2.097-6.957 4.675v1.72a2 2 0 0 0 1.001 1.733 11.193 11.193 0 0 0 5.68 1.526c2.043 0 4.09-.52 6.14-1.562a2 2 0 0 0 1.094-1.783v-1.634c0-2.578-3.121-4.675-6.958-4.675z"/>
</svg>
